resources/icons/16px/array-numeric.svg

<?xml version="1.0" encoding="UTF-8"?>
<svg width="16px" height="16px" viewBox="0 0 16 16" version="1.1" xmlns="http://www.w3.org/2000/svg" xmlns:xlink="http://www.w3.org/1999/xlink">
    <title>array-numeric</title>
    <g stroke-width="1" fill-rule="evenodd">
        <path d="M15,0 C15.5128358,0 15.9355072,0.38604019 15.9932723,0.883378875 L16,1 L16,15 C16,15.5128358 15.6139598,15.9355072 15.1166211,15.9932723 L15,16 L12,16 C11.4477153,16 11,15.5522847 11,15 C11,14.4871642 11.3860402,14.0644928 11.8833789,14.0067277 L12,14 L14,14 L14,2 L12,2 C11.4871642,2 11.0644928,1.61395981 11.0067277,1.11662113 L11,1 C11,0.487164161 11.3860402,0.0644928393 11.8833789,0.00672773133 L12,0 L15,0 Z M4,0 C4.55228475,0 5,0.44771525 5,1 C5,1.51283584 4.61395981,1.93550716 4.11662113,1.99327227 L4,2 L2,2 L2,14 L4,14 C4.51283584,14 4.93550716,14.3860402 4.99327227,14.8833789 L5,15 C5,15.5128358 4.61395981,15.9355072 4.11662113,15.9932723 L4,16 L1,16 C0.487164161,16 0.0644928393,15.6139598 0.00672773133,15.1166211 L0,15 L0,1 C0,0.487164161 0.38604019,0.0644928393 0.883378875,0.00672773133 L1,0 L4,0 Z M10.904,5 C11.16,5 11.3866667,5.03733333 11.584,5.112 C11.7813333,5.18666667 11.948,5.29066667 12.084,5.424 C12.22,5.55733333 12.324,5.716 12.396,5.9 C12.468,6.084 12.504,6.28533333 12.504,6.504 C12.504,6.73333333 12.4533333,6.94533333 12.352,7.14 C12.2506667,7.33466667 12.0986667,7.49866667 11.896,7.632 L11.896,7.632 L11.896,7.648 L11.9768889,7.68755556 C12.0314074,7.71896296 12.0871111,7.76044444 12.144,7.812 C12.2293333,7.88933333 12.3066667,7.984 12.376,8.096 C12.4453333,8.208 12.5026667,8.33733333 12.548,8.484 C12.5933333,8.63066667 12.616,8.792 12.616,8.968 C12.616,9.21866667 12.5733333,9.44533333 12.488,9.648 C12.4026667,9.85066667 12.284,10.024 12.132,10.168 C11.98,10.312 11.8,10.4226667 11.592,10.5 C11.384,10.5773333 11.1573333,10.616 10.912,10.616 C10.4853333,10.616 10.12,10.5146667 9.816,10.312 C9.512,10.1093333 9.31733333,9.82133333 9.232,9.448 C9.22133333,9.39466667 9.24266667,9.36 9.296,9.344 L9.296,9.344 L9.992,9.184 L10.025,9.1815 C10.055,9.1845 10.076,9.204 10.088,9.24 C10.1466667,9.4 10.2426667,9.536 10.376,9.648 C10.5093333,9.76 10.688,9.816 10.912,9.816 C11.168,9.816 11.3653333,9.74 11.504,9.588 C11.6426667,9.436 11.712,9.24266667 11.712,9.008 C11.712,8.73066667 11.632,8.51333333 11.472,8.356 C11.312,8.19866667 11.096,8.12 10.824,8.12 L10.824,8.12 L10.592,8.12 L10.557,8.115 C10.527,8.105 10.512,8.08 10.512,8.04 L10.512,8.04 L10.512,7.408 L10.517,7.373 C10.527,7.343 10.552,7.328 10.592,7.328 L10.592,7.328 L10.808,7.328 L10.94624,7.31936 C11.12288,7.29632 11.2688,7.2272 11.384,7.112 C11.528,6.968 11.6,6.776 11.6,6.536 C11.6,6.31733333 11.536,6.14 11.408,6.004 C11.28,5.868 11.1013333,5.8 10.872,5.8 C10.6693333,5.8 10.5093333,5.85066667 10.392,5.952 C10.2746667,6.05333333 10.192,6.18933333 10.144,6.36 C10.128,6.408 10.096,6.42666667 10.048,6.416 L10.048,6.416 L9.368,6.256 L9.334,6.244 C9.306,6.228 9.296,6.2 9.304,6.16 C9.336,5.99466667 9.396,5.84133333 9.484,5.7 C9.572,5.55866667 9.684,5.436 9.82,5.332 C9.956,5.228 10.116,5.14666667 10.3,5.088 C10.484,5.02933333 10.6853333,5 10.904,5 Z M4.752,5.088 L4.787,5.093 C4.817,5.103 4.832,5.128 4.832,5.168 L4.832,5.168 L4.832,10.448 L4.827,10.483 C4.817,10.513 4.792,10.528 4.752,10.528 L4.752,10.528 L4.016,10.528 L3.981,10.523 C3.951,10.513 3.936,10.488 3.936,10.448 L3.936,10.448 L3.936,6.16 L3.92,6.16 L3.088,6.744 L3.05632,6.76 C3.01877333,6.7728 3,6.75146667 3,6.696 L3,6.696 L3,5.88 L3.00622222,5.83911111 C3.01451852,5.81303704 3.03111111,5.78933333 3.056,5.768 L3.056,5.768 L3.928,5.136 L3.96888889,5.10933333 C3.99851852,5.09511111 4.03288889,5.088 4.072,5.088 L4.072,5.088 L4.752,5.088 Z M7.344,5 C7.6,5 7.82666667,5.04 8.024,5.12 C8.22133333,5.2 8.388,5.308 8.524,5.444 C8.66,5.58 8.764,5.74 8.836,5.924 C8.908,6.108 8.944,6.30666667 8.944,6.52 C8.944,6.76533333 8.89866667,6.99066667 8.808,7.196 C8.71733333,7.40133333 8.592,7.6 8.432,7.792 L8.432,7.792 L6.848,9.712 L6.848,9.728 L8.864,9.728 L8.899,9.733 C8.929,9.743 8.944,9.768 8.944,9.808 L8.944,9.808 L8.944,10.448 L8.939,10.483 C8.929,10.513 8.904,10.528 8.864,10.528 L8.864,10.528 L5.808,10.528 L5.773,10.523 C5.743,10.513 5.728,10.488 5.728,10.448 L5.728,10.448 L5.728,9.848 L5.73244444,9.808 C5.73837037,9.78311111 5.75022222,9.76177778 5.768,9.744 L5.768,9.744 L7.688,7.352 L7.78755556,7.21866667 C7.84918519,7.12977778 7.90133333,7.04088889 7.944,6.952 C8.008,6.81866667 8.04,6.67466667 8.04,6.52 C8.04,6.31733333 7.97733333,6.14666667 7.852,6.008 C7.72666667,5.86933333 7.54933333,5.8 7.32,5.8 C7.10133333,5.8 6.93066667,5.86133333 6.808,5.984 C6.68533333,6.10666667 6.61066667,6.272 6.584,6.48 C6.57333333,6.53333333 6.544,6.55466667 6.496,6.544 L6.496,6.544 L5.792,6.4 L5.758,6.388 C5.73,6.372 5.72,6.344 5.728,6.304 C5.744,6.144 5.78933333,5.98666667 5.864,5.832 C5.93866667,5.67733333 6.04266667,5.53733333 6.176,5.412 C6.30933333,5.28666667 6.47333333,5.18666667 6.668,5.112 C6.86266667,5.03733333 7.088,5 7.344,5 Z"></path>
    </g>
</svg>

<svg xmlns="http://www.w3.org/2000/svg" viewBox="0 0 16 16">
  <path d="M15 0a1 1 0 0 1 .993.883L16 1v14a1 1 0 0 1-.883.993L15 16h-3a1 1 0 0 1-.117-1.993L12 14h2V2h-2a1 1 0 0 1-.993-.883L11 1a1 1 0 0 1 .883-.993L12 0zM4 0a1 1 0 0 1 .117 1.993L4 2H2v12h2a1 1 0 0 1 .993.883L5 15a1 1 0 0 1-.883.993L4 16H1a1 1 0 0 1-.993-.883L0 15V1A1 1 0 0 1 .883.007L1 0zm6.904 5q.384 0 .68.112.296.113.5.312.204.2.312.476t.108.604q0 .344-.152.636a1.3 1.3 0 0 1-.456.492v.016l.08.04q.083.046.168.124.128.116.232.284a1.67 1.67 0 0 1 .24.872q0 .375-.128.68a1.52 1.52 0 0 1-.896.852 2 2 0 0 1-.68.116q-.64 0-1.096-.304a1.36 1.36 0 0 1-.584-.864q-.016-.08.064-.104l.696-.16.033-.002q.045.004.063.058.088.24.288.408t.536.168q.384 0 .592-.228a.83.83 0 0 0 .208-.58q0-.416-.24-.652t-.648-.236h-.232l-.035-.005q-.045-.015-.045-.075v-.632l.005-.035q.015-.045.075-.045h.216l.138-.009a.73.73 0 0 0 .438-.207q.216-.216.216-.576a.75.75 0 0 0-.192-.532q-.192-.204-.536-.204-.304 0-.48.152a.8.8 0 0 0-.248.408q-.024.072-.096.056l-.68-.16-.034-.012q-.042-.024-.03-.084a1.35 1.35 0 0 1 .516-.828q.204-.156.48-.244A2 2 0 0 1 10.904 5m-6.152.088.035.005q.045.015.045.075v5.28l-.005.035q-.015.045-.075.045h-.736l-.035-.005q-.045-.015-.045-.075V6.16H3.92l-.832.584-.032.016Q3 6.779 3 6.696V5.88l.006-.04a.16.16 0 0 1 .05-.072l.872-.632.04-.027a.24.24 0 0 1 .104-.021zM7.344 5q.384 0 .68.12t.5.324.312.48.108.596q0 .367-.136.676-.136.308-.376.596l-1.584 1.92v.016h2.016l.035.005q.045.015.045.075v.64l-.005.035q-.015.045-.075.045H5.808l-.035-.005q-.045-.015-.045-.075v-.6l.004-.04a.13.13 0 0 1 .036-.064l1.92-2.392.1-.133a2 2 0 0 0 .156-.267 1 1 0 0 0 .096-.432.74.74 0 0 0-.188-.512Q7.664 5.8 7.32 5.8q-.329 0-.512.184a.83.83 0 0 0-.224.496q-.015.08-.088.064L5.792 6.4l-.034-.012q-.042-.024-.03-.084a1.425 1.425 0 0 1 .94-1.192A1.9 1.9 0 0 1 7.344 5"/>
</svg>
